X:1
T:Up with Thy Hands to Jesus
T:Up with Thy Hands to Jesus
T:Philip Paul Bliss
T:H. L. Hammond, 1873
T:Public Domain Courtesy of the Cyber Hymnal™
T:Public Domain Courtesy of the Cyber Hymnal™
C:Philip Paul Bliss
Z:Public Domain
Z:Courtesy of the Cyber Hymnal™
%%score ( 1 2 ) ( 3 4 )
L:1/8
Q:1/4=108
M:4/4
K:Ab
V:1 treble 
V:2 treble 
V:3 bass 
V:4 bass 
V:1
 A2 G>A B2 E2 | ([Ec]3 [DB]) [CA]2 [EA]2 | [FB]3 [F=A] [GB]2 [EG]2 | [Ac]6 z2 | A2 G>A B2 E2 | %5
w: 1.~“Up with thy hands to|Je- * sus,” Oh,|guilt- y temp- est-|tossed;|“Up with thy hands to|
w: 2.~“Up with thy hands to|Je- * sus,” He|walks up- on the|sea;|“Up with thy hands to|
w: 3.~“Up with thy hands to|Je- * sus,” He|hears thy pit- eous|cry;|“Up with thy hands to|
w: 4.~“Up with thy hands to|Je- * sus,” He|rul- eth wind and|wave;|“Up with thy hands to|
 ([Ec]3 [DB]) [CA]2 [CA]2 | [DB] [DB]3 [CA]2 [B,G]2 | [CA]6 (GA) | B3 B B2 E2 | c c3 z2 A2 | %10
w: Je- * sus,” Or,|sin- ner, thou art|lost. The *|waves are wild- ly|dash- ing, Thy|
w: Je- * sus,” He|stoop- eth now for|thee. Say *|not thy hands are|fee- ble, Thy|
w: Je- * sus,” No|o- ther help is|nigh. Even *|now thy bark is|sink- ing, The|
w: Je- * sus,” His|love now yearns to|save. Oh, *|if thou wilt but|trust Him, His|
 A3 A c2 B2 | B6 (GA) | B3 B B2 E2 | c c3 z2 c2 | B3 B A2 F2 | E6 ||"^Refrain" (FG) | %17
w: boat is light and|frail, The *|light- nings sharp are|flash- ing, And|fierce- ly sweeps the|gale.||
w: fin- gers can not|cling; His *|might- y grasp shall|hold thee, And|sure sal- va- tion|bring.|Then *|
w: bill- ows o’er thee|roll, “Up *|with thy hands to|Je- sus,” Oh,|sin- ner, save thy|soul.||
w: help He’ll quick- ly|give; Haste, *|then, no long- er|doubt- ing, “Up|with thy hands,” and|live.||
 A2 G>A B2 E2 | (c3 B) A2 [EA]2 | [FB]3 [F=A] [GB]2 [EG]2 | [Ac]6 z2 | A2 G>A B2 E2 | %22
w: |||||
w: “up with thy hands to|Je- * sus,” Oh|guilt- y tem- pest-|tossed,|“Up with thy hands to|
w: |||||
w: |||||
 (c3 B) A2 [EB]2 | [FB] [FB]3 [EA]2 [EG]2 | [EA]6 |] %25
w: |||
w: Je- * sus,” Or,|sin- ner, thou art|lost.|
w: |||
w: |||
V:2
 A2 G>A B2 E2 | x8 | x8 | x8 | A2 G>A B2 E2 | x8 | x8 | x8 | x8 | x8 | x8 | x8 | x8 | x8 | x8 | %15
 x6 || x2 | A2 G>A B2 E2 | A4 A2 x2 | x8 | x8 | A2 G>A B2 E2 | A4 A2 x2 | x8 | x6 |] %25
V:3
 A,2 G,>A, B,2 E,2 | A,4 A,,2 C,2 | D,3 D, E,2 E,2 | A,6 z2 | A,2 G,>A, B,2 E,2 | A,4 A,,2 A,,2 | %6
 D, D,3 E,2 E,2 | A,,6 z2 | [E,G,]6 z2 | [A,,A,]6 z2 | [D,F,A,]4 [B,,=D,F,A,]4 | [E,G,]6 z2 | %12
 [E,G,]6 z2 | [A,,A,]6 z2 | [B,,=D,F,A,]2 z2 [B,,D,F,A,]2 z2 | [E,G,]6 || (F,G,) | %17
 A,2 G,>A, B,2 E,2 | (E3 D) [A,,C]2 [A,,C]2 | [D,D]4 [E,B,]4 | A,2 [E,C]2 [C,E]2 [E,C]2 | %21
 A,2 G,>A, B,2 E,2 | (E3 D) [A,,C]2 [A,,C]2 | [D,D] [D,D]3 [E,C]2 [E,B,]2 | [A,,C]6 |] %25
V:4
 x8 | x8 | x8 | x8 | x8 | x8 | x8 | x8 | x8 | x8 | x8 | x8 | x8 | x8 | x8 | x6 || x2 | %17
 A,2 G,>A, B,2 E,2 | A,4 x4 | x8 | A,2 x6 | A,2 G,>A, B,2 E,2 | A,4 x4 | x8 | x6 |] %25

